assets/supermercado.svg

<svg version="1.1" id="Layer_1" xmlns="http://www.w3.org/2000/svg" xmlns:xlink="http://www.w3.org/1999/xlink" x="0px" y="0px"
	 width="100%" viewBox="0 0 512 512" enable-background="new 0 0 512 512" xml:space="preserve">
<path fill="#FE3345" opacity="1.000000" stroke="none" 
	d="
M289.000000,513.000000 
	C267.979095,513.000000 246.958206,513.000000 225.714081,512.620483 
	C224.812195,511.837738 224.174942,511.192780 223.448578,511.068451 
	C215.247650,509.664642 206.929901,508.786621 198.840836,506.914642 
	C170.711868,500.405060 144.363678,489.504639 119.951370,474.000549 
	C97.942436,460.022766 78.685081,442.941376 61.651985,423.224640 
	C49.312740,408.941223 38.743881,393.469696 30.021749,376.795746 
	C15.863479,349.729614 6.174790,321.189514 2.901953,290.652832 
	C2.836375,290.040985 1.658786,289.548309 0.999997,289.000000 
	C1.000000,267.645782 1.000000,246.291550 1.372309,224.726395 
	C2.823652,219.491714 4.031859,214.491714 4.960213,209.440262 
	C9.998367,182.026169 19.338379,156.214401 32.969212,131.870529 
	C47.982143,105.058311 67.311295,81.916130 90.550323,61.892643 
	C109.597855,45.480686 130.550934,32.139969 153.584290,22.109837 
	C175.756638,12.454638 198.719925,5.570251 222.853912,2.917821 
	C223.630157,2.832508 224.287323,1.663707 225.000000,0.999997 
	C246.020889,1.000000 267.041779,1.000000 288.287598,1.381024 
	C289.356567,2.171350 290.159851,2.768717 291.050781,2.961808 
	C305.003632,5.985881 319.120361,8.389196 332.891144,12.084090 
	C350.529816,16.816803 367.083649,24.397160 383.000427,33.428413 
	C398.967133,42.487976 414.211395,52.679531 427.448334,65.285423 
	C439.497803,76.760490 450.740173,89.211563 461.317352,102.072105 
	C475.038147,118.754944 485.539581,137.624161 493.708252,157.589264 
	C502.344788,178.697937 509.002533,200.449677 511.100128,223.355179 
	C511.155182,223.956406 512.341309,224.454041 513.000000,225.000000 
	C513.000000,246.020889 513.000000,267.041779 512.619751,288.286560 
	C511.836792,289.189240 511.220215,289.822083 511.063171,290.553589 
	C508.026642,304.698303 505.662048,319.021606 501.894928,332.966614 
	C497.084503,350.773651 489.409302,367.484467 480.228790,383.549103 
	C471.185944,399.372833 461.064697,414.484924 448.552704,427.614288 
	C437.058594,439.675537 424.633820,450.988983 411.706512,461.510742 
	C394.945557,475.152771 376.101776,485.743652 356.060028,493.855469 
	C335.033020,502.366028 313.419556,508.999939 290.648560,511.099731 
	C290.045746,511.155334 289.547180,512.341248 289.000000,513.000000 
M391.042633,396.440857 
	C395.092865,391.622589 397.008911,386.058685 397.007111,379.772552 
	C396.993317,331.280609 396.999512,282.788696 396.999481,234.296753 
	C396.999481,232.731918 396.999451,231.167084 396.999451,229.049072 
	C391.493134,232.162292 386.847717,235.215790 381.830872,237.426361 
	C379.661133,238.382416 376.231384,238.524109 374.218536,237.451218 
	C363.142944,231.547699 352.383759,225.053162 341.370178,219.027985 
	C339.542084,218.027908 336.458130,217.348999 334.867126,218.209351 
	C324.264923,223.942566 313.606079,229.679031 303.604492,236.369553 
	C298.613098,239.708527 295.112274,238.884171 290.676727,236.238754 
	C280.600586,230.229187 270.326996,224.551392 260.223358,218.586807 
	C257.807281,217.160492 255.929016,217.344254 253.596222,218.720642 
	C243.498978,224.678131 233.314346,230.487839 223.146591,236.325333 
	C219.883575,238.198715 216.705444,240.342712 212.685226,237.926086 
	C201.791763,231.377792 190.807205,224.980682 179.935974,218.396133 
	C177.320755,216.812149 175.284500,217.162689 172.755798,218.668579 
	C162.825562,224.582291 152.507553,229.882599 142.844254,236.192780 
	C137.019455,239.996460 132.590469,238.403381 127.655754,235.209702 
	C124.363457,233.078979 120.855637,231.281265 117.001274,229.081726 
	C117.001274,280.637360 116.830154,331.293945 117.126144,381.947754 
	C117.196777,394.036621 127.602715,405.440674 139.445206,406.638550 
	C157.017456,408.416077 174.814423,407.971771 193.000519,408.486969 
	C193.000519,405.734741 193.000519,403.946594 193.000519,402.158417 
	C193.000504,364.498016 192.998825,326.837616 193.002029,289.177216 
	C193.002609,282.352966 193.341156,282.002808 199.998672,282.002075 
	C237.992355,281.997833 275.986023,281.997955 313.979706,282.001984 
	C320.656708,282.002686 320.997437,282.352295 320.997986,289.149750 
	C321.001129,326.976776 320.999481,364.803833 320.999512,402.630859 
	C320.999512,404.373718 320.999512,406.116547 320.999512,408.000000 
	C335.795074,408.000000 349.789642,408.052094 363.783630,407.982758 
	C374.163605,407.931335 383.619080,405.481476 391.042633,396.440857 
M159.500000,168.999435 
	C140.084671,168.999435 120.669350,168.999435 101.001526,168.999435 
	C101.001526,181.163742 100.928795,192.641037 101.105804,204.114471 
	C101.125053,205.362228 102.294975,207.089813 103.424202,207.744690 
	C113.004921,213.300812 122.881271,218.369568 132.264771,224.231506 
	C135.652603,226.347885 137.654846,225.764893 140.597946,223.991684 
	C151.341934,217.518372 162.172104,211.177872 173.152573,205.118607 
	C174.766968,204.227737 177.765625,204.398743 179.450211,205.315811 
	C190.609131,211.390427 201.657776,217.679535 212.567825,224.191162 
	C215.323517,225.835892 217.418839,226.054474 220.144196,224.454285 
	C230.258636,218.515640 240.606934,212.961624 250.564255,206.775177 
	C255.216476,203.884766 258.848969,203.943008 263.478729,206.817673 
	C273.438049,213.001480 283.785706,218.556854 293.905273,224.487473 
	C296.639709,226.090027 298.737823,225.791641 301.478424,224.156219 
	C312.399292,217.639328 323.448822,211.325256 334.640411,205.287781 
	C336.420471,204.327484 339.644806,204.328659 341.398285,205.314209 
	C352.472321,211.538467 363.248962,218.291626 374.317810,224.525681 
	C376.001678,225.474075 379.089661,225.397797 380.851318,224.486664 
	C388.660889,220.447495 396.021881,215.510132 403.937408,211.716171 
	C410.669800,208.489288 414.080444,204.624207 413.218170,196.503220 
	C412.263672,187.513565 413.000000,178.344376 413.000000,168.999435 
	C328.379303,168.999435 244.439651,168.999435 159.500000,168.999435 
M396.454437,158.000000 
	C400.060516,158.000000 403.666626,158.000000 407.953552,158.000000 
	C398.066498,142.113678 388.234802,126.995232 379.211212,111.408943 
	C376.458496,106.654160 373.438812,105.902290 368.628326,105.910721 
	C295.341187,106.039108 222.053375,106.102821 148.766953,105.838364 
	C141.566254,105.812386 136.012543,106.463814 133.316849,114.070747 
	C132.576096,116.161057 130.880249,117.903923 129.680466,119.841988 
	C121.915092,132.385696 114.165710,144.939316 106.095772,158.000000 
	C203.002167,158.000000 299.235779,158.000000 396.454437,158.000000 
M291.499359,408.000000 
	C297.592041,408.000000 303.684723,408.000000 309.603851,408.000000 
	C309.603851,369.247986 309.603851,331.202026 309.603851,293.264465 
	C274.278687,293.264465 239.350250,293.264465 204.307739,293.264465 
	C204.307739,331.574310 204.307739,369.619537 204.307739,408.000000 
	C233.242630,408.000000 261.871094,408.000000 291.499359,408.000000 
z"/>
<path fill="#000000" opacity="1.000000" stroke="none" 
	d="
M0.999997,289.468658 
	C1.658786,289.548309 2.836375,290.040985 2.901953,290.652832 
	C6.174790,321.189514 15.863479,349.729614 30.021749,376.795746 
	C38.743881,393.469696 49.312740,408.941223 61.651985,423.224640 
	C78.685081,442.941376 97.942436,460.022766 119.951370,474.000549 
	C144.363678,489.504639 170.711868,500.405060 198.840836,506.914642 
	C206.929901,508.786621 215.247650,509.664642 223.448578,511.068451 
	C224.174942,511.192780 224.812195,511.837738 225.245422,512.620483 
	C150.406296,513.000000 75.812599,513.000000 1.000000,513.000000 
	C1.000000,438.645905 1.000000,364.291626 0.999997,289.468658 
z"/>
<path fill="#000000" opacity="1.000000" stroke="none" 
	d="
M513.000000,224.531342 
	C512.341309,224.454041 511.155182,223.956406 511.100128,223.355179 
	C509.002533,200.449677 502.344788,178.697937 493.708252,157.589264 
	C485.539581,137.624161 475.038147,118.754944 461.317352,102.072105 
	C450.740173,89.211563 439.497803,76.760490 427.448334,65.285423 
	C414.211395,52.679531 398.967133,42.487976 383.000427,33.428413 
	C367.083649,24.397160 350.529816,16.816803 332.891144,12.084090 
	C319.120361,8.389196 305.003632,5.985881 291.050781,2.961808 
	C290.159851,2.768717 289.356567,2.171350 288.756256,1.381024 
	C363.593719,1.000000 438.187408,1.000000 513.000000,1.000000 
	C513.000000,75.354088 513.000000,149.708389 513.000000,224.531342 
z"/>
<path fill="#000000" opacity="1.000000" stroke="none" 
	d="
M289.468658,513.000000 
	C289.547180,512.341248 290.045746,511.155334 290.648560,511.099731 
	C313.419556,508.999939 335.033020,502.366028 356.060028,493.855469 
	C376.101776,485.743652 394.945557,475.152771 411.706512,461.510742 
	C424.633820,450.988983 437.058594,439.675537 448.552704,427.614288 
	C461.064697,414.484924 471.185944,399.372833 480.228790,383.549103 
	C489.409302,367.484467 497.084503,350.773651 501.894928,332.966614 
	C505.662048,319.021606 508.026642,304.698303 511.063171,290.553589 
	C511.220215,289.822083 511.836792,289.189240 512.619751,288.755249 
	C513.000000,363.593719 513.000000,438.187408 513.000000,513.000000 
	C438.645905,513.000000 364.291626,513.000000 289.468658,513.000000 
z"/>
<path fill="#000000" opacity="1.000000" stroke="none" 
	d="
M224.531342,0.999997 
	C224.287323,1.663707 223.630157,2.832508 222.853912,2.917821 
	C198.719925,5.570251 175.756638,12.454638 153.584290,22.109837 
	C130.550934,32.139969 109.597855,45.480686 90.550323,61.892643 
	C67.311295,81.916130 47.982143,105.058311 32.969212,131.870529 
	C19.338379,156.214401 9.998367,182.026169 4.960213,209.440262 
	C4.031859,214.491714 2.823652,219.491714 1.372309,224.257736 
	C1.000000,149.739456 1.000000,75.478920 1.000000,1.000000 
	C75.354088,1.000000 149.708389,1.000000 224.531342,0.999997 
z"/>
<path fill="#000000" opacity="1.000000" stroke="none" 
	d="
M390.794312,396.704102 
	C383.619080,405.481476 374.163605,407.931335 363.783630,407.982758 
	C349.789642,408.052094 335.795074,408.000000 320.999512,408.000000 
	C320.999512,406.116547 320.999512,404.373718 320.999512,402.630859 
	C320.999481,364.803833 321.001129,326.976776 320.997986,289.149750 
	C320.997437,282.352295 320.656708,282.002686 313.979706,282.001984 
	C275.986023,281.997955 237.992355,281.997833 199.998672,282.002075 
	C193.341156,282.002808 193.002609,282.352966 193.002029,289.177216 
	C192.998825,326.837616 193.000504,364.498016 193.000519,402.158417 
	C193.000519,403.946594 193.000519,405.734741 193.000519,408.486969 
	C174.814423,407.971771 157.017456,408.416077 139.445206,406.638550 
	C127.602715,405.440674 117.196777,394.036621 117.126144,381.947754 
	C116.830154,331.293945 117.001274,280.637360 117.001274,229.081726 
	C120.855637,231.281265 124.363457,233.078979 127.655754,235.209702 
	C132.590469,238.403381 137.019455,239.996460 142.844254,236.192780 
	C152.507553,229.882599 162.825562,224.582291 172.755798,218.668579 
	C175.284500,217.162689 177.320755,216.812149 179.935974,218.396133 
	C190.807205,224.980682 201.791763,231.377792 212.685226,237.926086 
	C216.705444,240.342712 219.883575,238.198715 223.146591,236.325333 
	C233.314346,230.487839 243.498978,224.678131 253.596222,218.720642 
	C255.929016,217.344254 257.807281,217.160492 260.223358,218.586807 
	C270.326996,224.551392 280.600586,230.229187 290.676727,236.238754 
	C295.112274,238.884171 298.613098,239.708527 303.604492,236.369553 
	C313.606079,229.679031 324.264923,223.942566 334.867126,218.209351 
	C336.458130,217.348999 339.542084,218.027908 341.370178,219.027985 
	C352.383759,225.053162 363.142944,231.547699 374.218536,237.451218 
	C376.231384,238.524109 379.661133,238.382416 381.830872,237.426361 
	C386.847717,235.215790 391.493134,232.162292 396.999451,229.049072 
	C396.999451,231.167084 396.999481,232.731918 396.999481,234.296753 
	C396.999512,282.788696 396.993317,331.280609 397.007111,379.772552 
	C397.008911,386.058685 395.092865,391.622589 390.794312,396.704102 
z"/>
<path fill="#000000" opacity="1.000000" stroke="none" 
	d="
M160.000000,168.999435 
	C244.439651,168.999435 328.379303,168.999435 413.000000,168.999435 
	C413.000000,178.344376 412.263672,187.513565 413.218170,196.503220 
	C414.080444,204.624207 410.669800,208.489288 403.937408,211.716171 
	C396.021881,215.510132 388.660889,220.447495 380.851318,224.486664 
	C379.089661,225.397797 376.001678,225.474075 374.317810,224.525681 
	C363.248962,218.291626 352.472321,211.538467 341.398285,205.314209 
	C339.644806,204.328659 336.420471,204.327484 334.640411,205.287781 
	C323.448822,211.325256 312.399292,217.639328 301.478424,224.156219 
	C298.737823,225.791641 296.639709,226.090027 293.905273,224.487473 
	C283.785706,218.556854 273.438049,213.001480 263.478729,206.817673 
	C258.848969,203.943008 255.216476,203.884766 250.564255,206.775177 
	C240.606934,212.961624 230.258636,218.515640 220.144196,224.454285 
	C217.418839,226.054474 215.323517,225.835892 212.567825,224.191162 
	C201.657776,217.679535 190.609131,211.390427 179.450211,205.315811 
	C177.765625,204.398743 174.766968,204.227737 173.152573,205.118607 
	C162.172104,211.177872 151.341934,217.518372 140.597946,223.991684 
	C137.654846,225.764893 135.652603,226.347885 132.264771,224.231506 
	C122.881271,218.369568 113.004921,213.300812 103.424202,207.744690 
	C102.294975,207.089813 101.125053,205.362228 101.105804,204.114471 
	C100.928795,192.641037 101.001526,181.163742 101.001526,168.999435 
	C120.669350,168.999435 140.084671,168.999435 160.000000,168.999435 
z"/>
<path fill="#000000" opacity="1.000000" stroke="none" 
	d="
M395.961914,158.000000 
	C299.235779,158.000000 203.002167,158.000000 106.095772,158.000000 
	C114.165710,144.939316 121.915092,132.385696 129.680466,119.841988 
	C130.880249,117.903923 132.576096,116.161057 133.316849,114.070747 
	C136.012543,106.463814 141.566254,105.812386 148.766953,105.838364 
	C222.053375,106.102821 295.341187,106.039108 368.628326,105.910721 
	C373.438812,105.902290 376.458496,106.654160 379.211212,111.408943 
	C388.234802,126.995232 398.066498,142.113678 407.953552,158.000000 
	C403.666626,158.000000 400.060516,158.000000 395.961914,158.000000 
z"/>
<path fill="#000000" opacity="1.000000" stroke="none" 
	d="
M290.999451,408.000000 
	C261.871094,408.000000 233.242630,408.000000 204.307739,408.000000 
	C204.307739,369.619537 204.307739,331.574310 204.307739,293.264465 
	C239.350250,293.264465 274.278687,293.264465 309.603851,293.264465 
	C309.603851,331.202026 309.603851,369.247986 309.603851,408.000000 
	C303.684723,408.000000 297.592041,408.000000 290.999451,408.000000 
z"/>
</svg>

<svg width="512" height="512" xmlns="http://www.w3.org/2000/svg" xml:space="preserve" enable-background="new 0 0 512 512" version="1.1">

 <g>
  <title>Layer 1</title>
  <path id="svg_1" d="m289,513c-21.02091,0 -42.04179,0 -63.28592,-0.37952c-0.90188,-0.78274 -1.53914,-1.4277 -2.2655,-1.55203c-8.20093,-1.40381 -16.51868,-2.28183 -24.60774,-4.15381c-28.12897,-6.50958 -54.47716,-17.41 -78.88947,-32.91409c-22.00893,-13.97778 -41.26629,-31.05917 -58.29938,-50.77591c-12.33925,-14.28342 -22.90811,-29.75494 -31.63024,-46.42889c-14.15827,-27.06614 -23.84696,-55.60624 -27.1198,-86.14292c-0.06557,-0.61185 -1.24316,-1.10452 -1.90195,-1.65283c0,-21.35422 0,-42.70845 0.37231,-64.27361c1.45134,-5.23468 2.65955,-10.23468 3.5879,-15.28613c5.03816,-27.41409 14.37817,-53.22586 28.009,-77.56973c15.01293,-26.81222 34.34209,-49.9544 57.58111,-69.97789c19.04753,-16.41195 40.00061,-29.75267 63.03397,-39.7828c22.17235,-9.6552 45.13563,-16.53959 69.26962,-19.19202c0.77625,-0.08531 1.43341,-1.25411 2.14609,-1.91782c21.02089,0 42.04178,0 63.2876,0.38102c1.06897,0.79033 1.87225,1.3877 2.76318,1.58079c13.95285,3.02407 28.06958,5.42739 41.84036,9.12228c17.63868,4.73271 34.19251,12.31307 50.10929,21.34432c15.9667,9.05957 31.21096,19.25112 44.4479,31.85701c12.04947,11.47507 23.29184,23.92614 33.86902,36.78668c13.7208,16.68284 24.22223,35.55206 32.3909,55.51716c8.63654,21.10868 15.29428,42.86042 17.39188,65.76592c0.05505,0.60123 1.24118,1.09886 1.89987,1.64482c0,21.02089 0,42.04178 -0.38025,63.28656c-0.78296,0.90268 -1.39954,1.53552 -1.55658,2.26703c-3.03653,14.14471 -5.40112,28.46802 -9.16824,42.41302c-4.81043,17.80704 -12.48563,34.51786 -21.66614,50.58249c-9.04285,15.82373 -19.16409,30.93582 -31.67609,44.06519c-11.49411,12.06125 -23.91888,23.37469 -36.84619,33.89645c-16.76095,13.64203 -35.60473,24.23291 -55.64648,32.34473c-21.02701,8.51056 -42.64047,15.14447 -65.41147,17.24426c-0.60281,0.0556 -1.10138,1.24152 -1.64856,1.90027m102.04263,-116.55914c4.05024,-4.81827 5.96628,-10.38217 5.96448,-16.66831c-0.01379,-48.49194 -0.0076,-96.98385 -0.00763,-145.4758c0,-1.56483 -0.00003,-3.12967 -0.00003,-5.24768c-5.50632,3.11322 -10.15173,6.16672 -15.16858,8.37729c-2.16974,0.95606 -5.59949,1.09775 -7.61233,0.02486c-11.0756,-5.90352 -21.83478,-12.39806 -32.84836,-18.42323c-1.8281,-1.00008 -4.91205,-1.67899 -6.50305,-0.81864c-10.60221,5.73322 -21.26105,11.46968 -31.26264,18.1602c-4.99139,3.33898 -8.49222,2.51462 -12.92776,-0.1308c-10.07614,-6.00956 -20.34973,-11.68736 -30.45337,-17.65194c-2.41608,-1.42632 -4.29434,-1.24256 -6.62714,0.13383c-10.09724,5.95749 -20.28187,11.7672 -30.44963,17.60469c-3.26301,1.87338 -6.44115,4.01738 -10.46136,1.60076c-10.89347,-6.5483 -21.87802,-12.94541 -32.74926,-19.52996c-2.61522,-1.58398 -4.65147,-1.23344 -7.18017,0.27245c-9.93024,5.91371 -20.24825,11.21402 -29.91155,17.5242c-5.8248,3.80368 -10.25378,2.2106 -15.1885,-0.98308c-3.29229,-2.13072 -6.80011,-3.92844 -10.65448,-6.12797c0,51.55563 -0.17112,102.21222 0.12487,152.86602c0.07064,12.08887 10.47658,23.49292 22.31907,24.6908c17.57225,1.77753 35.36921,1.33322 53.55531,1.84842c0,-2.75223 0,-4.54038 0,-6.32855c-0.00002,-37.6604 -0.00169,-75.3208 0.00151,-112.9812c0.00058,-6.82425 0.33913,-7.17441 6.99664,-7.17515c37.99369,-0.00424 75.98735,-0.00412 113.98104,-0.00009c6.677,0.00071 7.01773,0.35032 7.01828,7.14777c0.00314,37.82703 0.00149,75.65408 0.00152,113.48111c0,1.74286 0,3.48569 0,5.36914c14.79556,0 28.79013,0.05209 42.78412,-0.01724c10.37998,-0.05143 19.83545,-2.50128 27.259,-11.5419m-231.54263,-227.44142c-19.41533,0 -38.83065,0 -58.49847,0c0,12.1643 -0.07274,23.6416 0.10427,35.11503c0.01925,1.24776 1.18917,2.97534 2.3184,3.63022c9.58072,5.55612 19.45707,10.62488 28.84057,16.48682c3.38783,2.11637 5.39008,1.53338 8.33318,-0.23983c10.74398,-6.47331 21.57415,-12.81381 32.55462,-18.87307c1.6144,-0.89087 4.61306,-0.71987 6.29764,0.1972c11.15892,6.07462 22.20757,12.36372 33.11761,18.87535c2.7557,1.64473 4.85102,1.86331 7.57638,0.26312c10.11444,-5.93864 20.46273,-11.49266 30.42006,-17.6791c4.65222,-2.89041 8.28471,-2.83217 12.91447,0.04249c9.95932,6.18381 20.30698,11.73918 30.42654,17.6698c2.73444,1.60256 4.83255,1.30417 7.57315,-0.33125c10.92087,-6.51689 21.9704,-12.83096 33.16199,-18.86844c1.78006,-0.9603 5.0044,-0.95912 6.75787,0.02643c11.07404,6.22426 21.85068,12.97742 32.91953,19.21147c1.68387,0.94839 4.77185,0.87212 6.53351,-0.03902c7.80957,-4.03916 15.17056,-8.97653 23.08609,-12.77049c6.73239,-3.22688 10.14303,-7.09196 9.28076,-15.21295c-0.9545,-8.98966 -0.21817,-18.15884 -0.21817,-27.50378c-84.6207,0 -168.56035,0 -253.5,0m236.95444,-10.99944c3.60608,0 7.21219,0 11.49911,0c-9.88705,-15.88632 -19.71875,-31.00477 -28.74234,-46.59106c-2.75271,-4.75478 -5.7724,-5.50665 -10.58288,-5.49822c-73.28714,0.12839 -146.57496,0.1921 -219.86138,-0.07236c-7.2007,-0.02597 -12.75441,0.62545 -15.4501,8.23239c-0.74075,2.09031 -2.4366,3.83317 -3.63638,5.77124c-7.76538,12.54371 -15.51476,25.09733 -23.5847,38.15801c96.9064,0 193.14001,0 290.35867,0m-104.95508,250c6.09268,0 12.18536,0 18.10449,0c0,-38.75201 0,-76.79797 0,-114.73554c-35.32516,0 -70.2536,0 -105.29611,0c0,38.30985 0,76.35508 0,114.73554c28.93489,0 57.56335,0 87.19162,0z" fill="#FE3345"/>
  <path id="svg_6" d="m390.79431,396.7041c-7.17523,8.77738 -16.6307,11.22723 -27.01068,11.27866c-13.99399,0.06933 -27.98856,0.01724 -42.78412,0.01724c0,-1.88345 0,-3.62628 0,-5.36914c-0.00003,-37.82703 0.00162,-75.65408 -0.00152,-113.48111c-0.00055,-6.79745 -0.34128,-7.14706 -7.01828,-7.14777c-37.99369,-0.00403 -75.98735,-0.00415 -113.98104,0.00009c-6.65751,0.00074 -6.99606,0.3509 -6.99664,7.17515c-0.0032,37.6604 -0.00153,75.3208 -0.00151,112.9812c0,1.78817 0,3.57632 0,6.32855c-18.1861,-0.5152 -35.98306,-0.07089 -53.55531,-1.84842c-11.84249,-1.19788 -22.24843,-12.60193 -22.31907,-24.6908c-0.29599,-50.6538 -0.12487,-101.31039 -0.12487,-152.86602c3.85437,2.19953 7.36219,3.99725 10.65448,6.12797c4.93472,3.19368 9.3637,4.78676 15.1885,0.98308c9.6633,-6.31018 19.98131,-11.61049 29.91155,-17.5242c2.5287,-1.50589 4.56495,-1.85643 7.18017,-0.27245c10.87124,6.58455 21.85579,12.98166 32.74926,19.52996c4.02021,2.41662 7.19835,0.27262 10.46136,-1.60076c10.16776,-5.83749 20.35239,-11.6472 30.44963,-17.60469c2.3328,-1.37639 4.21106,-1.56015 6.62714,-0.13383c10.10364,5.96458 20.37723,11.64238 30.45337,17.65194c4.43554,2.64542 7.93637,3.46978 12.92776,0.1308c10.00159,-6.69052 20.66043,-12.42698 31.26264,-18.1602c1.591,-0.86035 4.67495,-0.18144 6.50305,0.81864c11.01358,6.02517 21.77276,12.51971 32.84836,18.42323c2.01284,1.07289 5.44259,0.9312 7.61233,-0.02486c5.01685,-2.21057 9.66226,-5.26407 15.16858,-8.37729c0,2.11801 0.00003,3.68285 0.00003,5.24768c0.00003,48.49195 -0.00616,96.98386 0.00763,145.4758c0.0018,6.28614 -1.91424,11.85004 -6.2128,16.93155z" fill="#000000"/>
  <path id="svg_7" d="m160,168.99944c84.43965,0 168.3793,0 253,0c0,9.34494 -0.73633,18.51412 0.21817,27.50378c0.86227,8.12099 -2.54837,11.98607 -9.28076,15.21295c-7.91553,3.79396 -15.27652,8.73133 -23.08609,12.77049c-1.76166,0.91114 -4.84964,0.98741 -6.53351,0.03902c-11.06885,-6.23405 -21.84549,-12.98721 -32.91953,-19.21147c-1.75347,-0.98555 -4.97781,-0.98673 -6.75787,-0.02643c-11.19159,6.03748 -22.24112,12.35155 -33.16199,18.86844c-2.7406,1.63542 -4.83871,1.93381 -7.57315,0.33125c-10.11956,-5.93062 -20.46722,-11.48599 -30.42654,-17.6698c-4.62976,-2.87466 -8.26225,-2.9329 -12.91447,-0.04249c-9.95733,6.18644 -20.30562,11.74046 -30.42006,17.6791c-2.72536,1.60019 -4.82068,1.38161 -7.57638,-0.26312c-10.91004,-6.51163 -21.95869,-12.80073 -33.11761,-18.87535c-1.68458,-0.91707 -4.68324,-1.08807 -6.29764,-0.1972c-10.98047,6.05926 -21.81064,12.39976 -32.55462,18.87307c-2.9431,1.77321 -4.94535,2.3562 -8.33318,0.23983c-9.3835,-5.86194 -19.25985,-10.9307 -28.84057,-16.48682c-1.12923,-0.65488 -2.29915,-2.38246 -2.3184,-3.63022c-0.17701,-11.47343 -0.10427,-22.95073 -0.10427,-35.11503c19.66782,0 39.08314,0 58.99847,0z" fill="#000000"/>
  <path id="svg_8" d="m395.96191,158c-96.72613,0 -192.95974,0 -289.86614,0c8.06994,-13.06068 15.81932,-25.6143 23.5847,-38.15801c1.19978,-1.93807 2.89563,-3.68093 3.63638,-5.77124c2.69569,-7.60694 8.2494,-8.25836 15.4501,-8.23239c73.28642,0.26446 146.57424,0.20075 219.86138,0.07236c4.81048,-0.00843 7.83017,0.74344 10.58288,5.49822c9.02359,15.58629 18.85529,30.70474 28.74234,46.59106c-4.28692,0 -7.89303,0 -11.99164,0z" fill="#000000"/>
  <path id="svg_9" d="m290.99945,408c-29.12836,0 -57.75682,0 -86.69171,0c0,-38.38046 0,-76.42569 0,-114.73554c35.04251,0 69.97095,0 105.29611,0c0,37.93757 0,75.98353 0,114.73554c-5.91913,0 -12.01181,0 -18.6044,0z" fill="#000000"/>
 </g>
</svg>
